icons/compose-24.svg

<svg width="24" height="24" viewBox="0 0 24 24" fill="none" xmlns="http://www.w3.org/2000/svg">
<path d="M10.2593 3H2.75C2.19772 3 1.75 3.44772 1.75 4V21.25C1.75 21.8023 2.19772 22.25 2.75 22.25H20C20.5523 22.25 21 21.8023 21 21.25V13" stroke="black" stroke-width="1.5" stroke-linecap="round"/>
<path fill-rule="evenodd" clip-rule="evenodd" d="M19.0127 1.42693C19.6961 0.743512 20.8039 0.743514 21.4873 1.42693L22.5732 2.51287C23.2565 3.19629 23.2566 4.30412 22.5732 4.98748L13.9639 13.5969C13.7536 13.8071 13.4929 13.9605 13.207 14.0422L9.95606 14.9709C9.69421 15.0458 9.41233 14.973 9.21973 14.7804C9.02713 14.5878 8.95448 14.306 9.0293 14.0441L9.95801 10.7931C10.0397 10.5073 10.193 10.2466 10.4033 10.0363L19.0127 1.42693ZM11.4639 11.0969C11.4338 11.1268 11.4121 11.1644 11.4004 11.2053L10.8418 13.1584L12.7949 12.5998C12.8357 12.5882 12.8733 12.5664 12.9033 12.5363L19.1895 6.25017L17.75 4.81072L11.4639 11.0969ZM20.4268 2.48748C20.3291 2.38985 20.1708 2.38985 20.0732 2.48748L18.8106 3.75017L20.25 5.18963L21.5127 3.92693C21.6103 3.82935 21.6102 3.67106 21.5127 3.57342L20.4268 2.48748Z" fill="black"/>
</svg>

<svg xmlns="http://www.w3.org/2000/svg" width="24" height="24" fill="none"><path stroke="#000" stroke-linecap="round" stroke-width="1.5" d="M10.26 3H2.75a1 1 0 0 0-1 1v17.25a1 1 0 0 0 1 1H20a1 1 0 0 0 1-1V13"/><path fill="#000" fill-rule="evenodd" d="M19.013 1.427a1.75 1.75 0 0 1 2.474 0l1.086 1.086a1.75 1.75 0 0 1 0 2.474l-8.61 8.61c-.21.21-.47.364-.756.445l-3.25.929a.75.75 0 0 1-.928-.927l.929-3.25c.082-.287.235-.547.445-.758l8.61-8.61Zm-7.55 9.67a.25.25 0 0 0-.063.108l-.558 1.953 1.953-.558a.25.25 0 0 0 .108-.064L19.19 6.25 17.75 4.81l-6.286 6.287Zm8.964-8.61a.25.25 0 0 0-.354 0L18.811 3.75l1.439 1.44 1.263-1.263a.25.25 0 0 0 0-.354l-1.086-1.086Z" clip-rule="evenodd"/></svg>
